static/card-icons/thumbs-up.svg

<svg height="682.66669" viewBox="0 0 682.66669 682.66669" width="682.66669" xmlns="http://www.w3.org/2000/svg"><g style="fill:none;stroke:#000;stroke-width:30;stroke-linecap:round;stroke-linejoin:round;stroke-miterlimit:10" transform="matrix(1.3333333 0 0 -1.3333333 0 682.66667)"><path d="m0 0v60c0 22.092-17.909 40-40 40-11.046 0-20-8.954-20-20v-50c0-27.614-22.386-50-50-50h-30v-200h40c26.305-13.152 55.311-20 84.721-20h65.279" transform="translate(215 255)"/><path d="m0 0h20c16.568 0 30-13.432 30-30s-13.432-30-30-30h-30" transform="translate(275 75)"/><path d="m0 0h40c16.568 0 30-13.432 30-30s-13.432-30-30-30h-40" transform="translate(275 135)"/><path d="m0 0h60c16.568 0 30-13.432 30-30s-13.432-30-30-30h-60" transform="translate(275 195)"/><path d="m0 0h100c16.568 0 30-13.432 30-30s-13.432-30-30-30h-40" transform="translate(215 255)"/><path d="m75 15h-60v240h60z"/><path d="m0 0c0-55.229-44.771-100-100-100s-100 44.771-100 100 44.771 100 100 100 100-44.771 100-100z" transform="translate(497 397)"/><path d="m0 0-47.141-47.141-23.57 23.571" transform="translate(432.3555 414.3408)"/></g></svg>

<?xml version="1.0" encoding="UTF-8" standalone="no"?>
<!-- Created with Inkscape (http://www.inkscape.org/) -->

<svg
   version="1.1"
   id="svg2115"
   xml:space="preserve"
   width="682.66669"
   height="682.66669"
   viewBox="0 0 682.66669 682.66669"
   xmlns="http://www.w3.org/2000/svg"
   xmlns:svg="http://www.w3.org/2000/svg"><defs
     id="defs2119"><clipPath
       clipPathUnits="userSpaceOnUse"
       id="clipPath2129"><path
         d="M 0,512 H 512 V 0 H 0 Z"
         id="path2127" /></clipPath></defs><g
     id="g2121"
     transform="matrix(1.3333333,0,0,-1.3333333,0,682.66667)"><g
       id="g2123"><g
         id="g2125"
         clipPath="url(#clipPath2129)"><g
           id="g2131"
           transform="translate(215,255)"><path
             d="m 0,0 v 60 c 0,22.092 -17.909,40 -40,40 -11.046,0 -20,-8.954 -20,-20 V 30 c 0,-27.614 -22.386,-50 -50,-50 h -30 v -200 h 40 c 26.305,-13.152 55.311,-20 84.721,-20 H 50"
             style="fill:none;stroke:#000000;stroke-width:30;stroke-linecap:round;stroke-linejoin:round;stroke-miterlimit:10;stroke-dasharray:none;stroke-opacity:1"
             id="path2133" /></g><g
           id="g2135"
           transform="translate(275,75)"><path
             d="M 0,0 H 20 C 36.568,0 50,-13.432 50,-30 50,-46.568 36.568,-60 20,-60 h -30"
             style="fill:none;stroke:#000000;stroke-width:30;stroke-linecap:round;stroke-linejoin:round;stroke-miterlimit:10;stroke-dasharray:none;stroke-opacity:1"
             id="path2137" /></g><g
           id="g2139"
           transform="translate(275,135)"><path
             d="M 0,0 H 40 C 56.568,0 70,-13.432 70,-30 70,-46.568 56.568,-60 40,-60 H 0"
             style="fill:none;stroke:#000000;stroke-width:30;stroke-linecap:round;stroke-linejoin:round;stroke-miterlimit:10;stroke-dasharray:none;stroke-opacity:1"
             id="path2141" /></g><g
           id="g2143"
           transform="translate(275,195)"><path
             d="M 0,0 H 60 C 76.568,0 90,-13.432 90,-30 90,-46.568 76.568,-60 60,-60 H 0"
             style="fill:none;stroke:#000000;stroke-width:30;stroke-linecap:round;stroke-linejoin:round;stroke-miterlimit:10;stroke-dasharray:none;stroke-opacity:1"
             id="path2145" /></g><g
           id="g2147"
           transform="translate(215,255)"><path
             d="m 0,0 h 100 c 16.568,0 30,-13.432 30,-30 0,-16.568 -13.432,-30 -30,-30 H 60"
             style="fill:none;stroke:#000000;stroke-width:30;stroke-linecap:round;stroke-linejoin:round;stroke-miterlimit:10;stroke-dasharray:none;stroke-opacity:1"
             id="path2149" /></g><path
           d="M 75,15 H 15 v 240 h 60 z"
           style="fill:none;stroke:#000000;stroke-width:30;stroke-linecap:round;stroke-linejoin:round;stroke-miterlimit:10;stroke-dasharray:none;stroke-opacity:1"
           id="path2151" /><g
           id="g2153"
           transform="translate(497,397)"><path
             d="m 0,0 c 0,-55.229 -44.771,-100 -100,-100 -55.229,0 -100,44.771 -100,100 0,55.229 44.771,100 100,100 C -44.771,100 0,55.229 0,0 Z"
             style="fill:none;stroke:#000000;stroke-width:30;stroke-linecap:round;stroke-linejoin:round;stroke-miterlimit:10;stroke-dasharray:none;stroke-opacity:1"
             id="path2155" /></g><g
           id="g2157"
           transform="translate(432.3555,414.3408)"><path
             d="m 0,0 -47.141,-47.141 -23.57,23.571"
             style="fill:none;stroke:#000000;stroke-width:30;stroke-linecap:round;stroke-linejoin:round;stroke-miterlimit:10;stroke-dasharray:none;stroke-opacity:1"
             id="path2159" /></g></g></g></g></svg>
